icon/pk/weibo.svg

<svg viewBox="0 0 48 48" fill="none" xmlns="http://www.w3.org/2000/svg" height="1em" width="1em">
  <path d="M12.5618 16.4109C9.21763 19.6608 2.16324 29.146 7.36253 35.9317C12.5618 42.7174 27.2821 40.0998 33.359 35.3193C39.4358 30.5388 38.836 27.5848 37.5184 26.2833C36.2009 24.9818 32.3556 26.297 31.2793 24.526C30.203 22.7551 33.1957 18.3311 30.6452 16.9312C28.0948 15.5313 23.6907 20.5811 21.7015 19.269C19.7122 17.9568 23.8906 13.6729 21.7015 12.4384C19.5123 11.204 15.906 13.161 12.5618 16.4109Z" fill="#2F88FF" stroke="black" stroke-width="4.15943" stroke-linejoin="round"/>
  <path d="M43.3787 16.5159C43.1435 13.3848 41.799 10.5632 39.7372 8.44277C37.7247 6.37311 35.0287 4.9715 32.0137 4.60229" stroke="black" stroke-width="4.15943" stroke-linecap="round"/>
  <path d="M37.2919 16.9313C37.1627 15.2916 36.4247 13.8139 35.2928 12.7034C34.188 11.6195 32.7079 10.8855 31.0527 10.6921" stroke="black" stroke-width="4.15943" stroke-linecap="round"/>
  <path d="M25 30C25 32.2091 22.3137 34 19 34C15.6863 34 13 32.2091 13 30C13 27.7909 15.6863 26 19 26C22.3137 26 25 27.7909 25 30Z" fill="white"/>
</svg>

<svg width="48" height="48" fill="none" xmlns="http://www.w3.org/2000/svg"><path d="M12.562 16.41c-3.344 3.25-10.399 12.736-5.2 19.522 5.2 6.785 19.92 4.168 25.997-.613 6.077-4.78 5.477-7.734 4.16-9.036-1.318-1.301-5.163.014-6.24-1.757-1.076-1.77 1.917-6.195-.634-7.595-2.55-1.4-6.954 3.65-8.944 2.338-1.989-1.312 2.19-5.596 0-6.83-2.189-1.235-5.795.722-9.14 3.972Z" fill="#2F88FF" stroke="#000" stroke-width="4.159" stroke-linejoin="round"/><path d="M43.379 16.516a12.954 12.954 0 0 0-3.642-8.073 12.963 12.963 0 0 0-7.723-3.84M37.292 16.931c-.13-1.64-.867-3.117-2-4.228a7.249 7.249 0 0 0-4.24-2.01" stroke="#000" stroke-width="4.159" stroke-linecap="round"/><path d="M25 30c0 2.21-2.686 4-6 4s-6-1.79-6-4 2.686-4 6-4 6 1.79 6 4Z" fill="#fff"/></svg>
